flaticon/transportation/aeroplane-1.svg

<svg xmlns="http://www.w3.org/2000/svg" width="32" height="32" viewBox="0 0 24 24">
    <path d="M 23.851562 12.972656 C 23.65625 12.777344 23.339844 12.777344 23.144531 12.972656 L 21.566406 14.550781 L 20.558594 12.246094 L 22.40625 10.417969 C 22.601562 10.222656 22.601562 9.90625 22.40625 9.710938 C 22.210938 9.515625 21.894531 9.515625 21.699219 9.710938 L 20.136719 11.273438 L 19.03125 8.746094 L 22.132812 5.796875 C 23.1875 4.894531 24.128906 2.703125 22.738281 1.265625 C 21.335938 -0.1875 19.097656 0.898438 18.207031 1.867188 L 15.253906 4.972656 L 12.726562 3.867188 L 14.289062 2.300781 C 14.484375 2.105469 14.484375 1.789062 14.289062 1.59375 C 14.09375 1.398438 13.777344 1.398438 13.582031 1.59375 L 11.742188 3.4375 L 9.449219 2.433594 L 11.03125 0.855469 C 11.226562 0.660156 11.226562 0.34375 11.03125 0.148438 C 10.835938 -0.046875 10.519531 -0.046875 10.324219 0.148438 L 8.464844 2.003906 L 6.132812 0.984375 C 5.945312 0.898438 5.726562 0.941406 5.582031 1.085938 L 3.125 3.542969 C 2.828125 3.894531 3.066406 4.214844 3.183594 4.300781 L 10.691406 9.773438 L 7.332031 13.304688 L 2.171875 11.046875 C 1.980469 10.964844 1.761719 11.007812 1.617188 11.152344 L 0.140625 12.628906 C -0.113281 12.925781 0.015625 13.273438 0.199219 13.386719 L 5.015625 16.898438 C 4.925781 17.574219 5.082031 18.144531 5.46875 18.53125 C 5.851562 18.914062 6.425781 19.074219 7.101562 18.984375 L 10.609375 23.796875 C 10.847656 24.105469 11.199219 24.003906 11.367188 23.855469 L 12.84375 22.378906 C 12.988281 22.234375 13.03125 22.015625 12.949219 21.828125 L 10.691406 16.667969 L 14.226562 13.308594 L 19.699219 20.816406 C 19.921875 21.113281 20.300781 21.035156 20.457031 20.875 L 22.914062 18.421875 C 23.058594 18.277344 23.101562 18.054688 23.019531 17.867188 L 22.003906 15.546875 L 23.851562 13.679688 C 24.050781 13.484375 24.050781 13.167969 23.851562 12.972656 Z M 20.164062 19.753906 L 14.699219 12.257812 C 14.613281 12.117188 14.285156 11.925781 13.953125 12.191406 L 9.75 16.183594 C 9.597656 16.328125 9.550781 16.554688 9.636719 16.746094 L 11.894531 21.914062 L 11.074219 22.734375 L 7.726562 18.140625 C 7.628906 18.007812 7.480469 17.933594 7.320312 17.933594 C 7.285156 17.933594 6.523438 18.148438 6.175781 17.824219 C 5.980469 17.640625 5.941406 17.257812 6.050781 16.796875 C 6.097656 16.597656 6.023438 16.394531 5.859375 16.273438 L 1.261719 12.921875 L 2.082031 12.101562 L 7.253906 14.359375 C 7.445312 14.445312 7.671875 14.398438 7.816406 14.246094 L 11.808594 10.046875 C 11.996094 9.871094 12 9.511719 11.742188 9.300781 L 4.246094 3.835938 L 6.046875 2.035156 L 15.175781 6.027344 C 15.371094 6.113281 15.59375 6.066406 15.738281 5.914062 L 18.933594 2.554688 C 19.515625 1.941406 21.082031 1.058594 22.03125 1.972656 C 23.023438 2.925781 22.054688 4.492188 21.445312 5.070312 L 18.085938 8.261719 C 17.933594 8.40625 17.890625 8.632812 17.972656 8.824219 L 21.964844 17.953125 Z M 20.164062 19.753906"/>
</svg>

<svg xmlns="http://www.w3.org/2000/svg" width="32" height="32" viewBox="0 0 24 24">
    <path d="M23.852 12.973a.5.5 0 0 0-.707 0l-1.579 1.578-1.007-2.305 1.847-1.828a.5.5 0 1 0-.707-.707l-1.562 1.562-1.106-2.527 3.102-2.95c1.055-.901 1.996-3.093.605-4.53-1.402-1.454-3.64-.368-4.531.601l-2.953 3.106-2.527-1.106 1.562-1.566a.5.5 0 1 0-.707-.707l-1.84 1.843L9.45 2.434 11.031.855a.5.5 0 1 0-.707-.707l-1.86 1.856L6.134.984a.49.49 0 0 0-.551.102L3.125 3.543a.51.51 0 0 0 .059.758l7.507 5.472-3.359 3.532-5.16-2.258a.503.503 0 0 0-.555.105L.141 12.63c-.254.297-.125.644.058.758l4.817 3.511c-.09.676.066 1.247.453 1.633.383.383.957.543 1.633.453l3.507 4.813c.239.308.59.207.758.058l1.477-1.476a.498.498 0 0 0 .105-.55l-2.258-5.161 3.536-3.36 5.472 7.508c.223.297.602.22.758.059l2.457-2.453a.504.504 0 0 0 .106-.555l-1.016-2.32 1.848-1.867c.199-.196.199-.512 0-.707zm-3.688 6.78L14.7 12.259c-.086-.14-.414-.332-.746-.067L9.75 16.184a.497.497 0 0 0-.113.562l2.258 5.168-.82.82-3.348-4.593a.5.5 0 0 0-.407-.207c-.035 0-.797.214-1.144-.11-.196-.183-.235-.566-.125-1.027a.502.502 0 0 0-.192-.524l-4.597-3.351.82-.82 5.172 2.257c.191.086.418.04.562-.113l3.993-4.2c.187-.175.191-.534-.067-.745L4.246 3.836l1.8-1.8 9.13 3.991c.195.086.418.04.562-.113l3.196-3.36c.582-.613 2.148-1.495 3.097-.581.992.953.024 2.52-.586 3.097l-3.36 3.192a.504.504 0 0 0-.112.562l3.992 9.13zm0 0"/>
</svg>
